**kern	**kern
*staff2	*staff1
*clefF4	*clefG2
*k[b-e-]	*k[b-e-]
*M4/4	*M4/4
=160	=160
*	*^
16r	4f'	4r
(16FFFLL	.	.
16AAA	.	.
16CCJJ)	.	.
4FF'	4r	4F 4A
16r	4f'	4r
(16FFLL	.	.
16AA	.	.
16CJJ)	.	.
4F'	4r	4F 4A
=161	=161	=161
8r	4f'	8r
8FF 8E	.	8G 8B-
8r	4f'	8r
8FF 8E-	.	8A 8c
8r	4f'	8r
8FF 8D	.	8B- 8d
8r	4f'	8r
8FF 8C	.	8A 8e-
*	*v	*v
=162	=162
4BBB- 4BB-	8f'L
.	8B-'J 8d'
4r	8b-'L
.	8d'J 8f'
2r	8dd'L
.	8f'J 8b-'
.	8ff'L
.	8ff'J
=163	=163
4r	1ff
4F 4B- 4d	.
4r	.
4F 4c 4e-	.
=164	=164
4r	8ff'L
.	8b-'J 8dd'
4B- 4d	8bb-'L
.	8dd'J 8ff'
2r	8ddd'L
.	8ff'J 8bb-'
.	8fff'L
.	8fff'J
=165	=165
1FF	4r
.	4ff 4bb- 4ddd 4fff
.	4r
.	4ff 4aa 4ccc 4fff
=166	=166
4BBB- 4BB-	4.bb-
4r	.
.	16aaLL
.	16bb-JJ
2r	4b-
.	4r
=	=
*-	*-
